packages/core/src/svgs/tokens/branded/XIDO.svg

<svg width="24" height="24" viewBox="0 0 24 24" fill="none" xmlns="http://www.w3.org/2000/svg">
<path d="M3.25 2L12 8.87497L20.7499 2V7.59372L15.6 11.9687L20.7499 16.3624V21.9875L3.25 7.29997V2ZM3.875 3.26875V7.01874L20.1249 20.6561V16.6249L14.6499 11.9687L20.1249 7.31247V3.26249L12 9.65L3.875 3.26875ZM8.23748 12.1875L11.3749 14.9875L3.25 22V16.3563L8.23748 12.1875ZM8.26248 12.9687L3.875 16.6249V20.6249L10.4062 15.0187L8.26248 12.9562V12.9687Z" fill="black"/>
</svg>

<svg xmlns="http://www.w3.org/2000/svg" width="24" height="24" fill="none" viewBox="0 0 24 24">
    <path fill="#000" d="M3.25 2 12 8.875 20.75 2v5.594l-5.15 4.375 5.15 4.393v5.626L3.25 7.3zm.625 1.269v3.75l16.25 13.637v-4.031l-5.475-4.656 5.475-4.657v-4.05L12 9.65zm4.362 8.918 3.138 2.8L3.25 22v-5.644zm.025.782-4.387 3.656v4l6.531-5.606-2.144-2.063z"/>
</svg>
